src/images/fi-social-android.svg

<?xml version="1.0" encoding="UTF-8" standalone="no"?>
<svg width="26px" height="30px" viewBox="0 0 26 30" version="1.1" xmlns="http://www.w3.org/2000/svg" xmlns:xlink="http://www.w3.org/1999/xlink" xmlns:sketch="http://www.bohemiancoding.com/sketch/ns">
    <!-- Generator: Sketch 3.3.2 (12043) - http://www.bohemiancoding.com/sketch -->
    <title>fi-social-android</title>
    <desc>Created with Sketch.</desc>
    <defs></defs>
    <g id="Page-1" stroke="none" stroke-width="1" fill="none" fill-rule="evenodd" sketch:type="MSPage">
        <g id="fi-social-android" sketch:type="MSLayerGroup" fill="#748598">
            <g id="Group" sketch:type="MSShapeGroup">
                <path d="M17.1626923,2.74153846 L18.455,0.381538462 C18.5238462,0.257692308 18.4788462,0.0996153846 18.3542308,0.0319230769 C18.2276923,-0.0369230769 18.0719231,0.0103846154 18.0053846,0.133846154 L16.6992308,2.51730769 C15.6007692,2.03 14.3711538,1.75538462 13.0715385,1.75653846 C11.7742308,1.75538462 10.5469231,2.02846154 9.45192308,2.515 L8.145,0.136538462 C8.07807692,0.0111538462 7.92038462,-0.0346153846 7.79730769,0.0338461538 C7.67192308,0.100769231 7.62576923,0.258076923 7.69538462,0.381923077 L8.98846154,2.73961538 C6.44769231,4.05038462 4.73153846,6.54461538 4.73307692,9.40923077 L21.4119231,9.40769231 C21.4126923,6.54384615 19.6996154,4.05384615 17.1626923,2.74153846 L17.1626923,2.74153846 Z M9.27846154,6.38807692 C8.89423077,6.38730769 8.58153846,6.07461538 8.58153846,5.68884615 C8.58153846,5.305 8.89423077,4.98961538 9.27884615,4.98961538 C9.66576923,4.98961538 9.97846154,5.305 9.97884615,5.68884615 C9.97884615,6.07461538 9.66576923,6.38807692 9.27846154,6.38807692 L9.27846154,6.38807692 Z M16.8730769,6.38653846 C16.4876923,6.38653846 16.1730769,6.07461538 16.1738462,5.68730769 C16.1738462,5.30423077 16.4869231,4.98884615 16.8730769,4.98730769 C17.2565385,4.98807692 17.5711538,5.30423077 17.5711538,5.68807692 C17.5711538,6.07384615 17.2584615,6.38653846 16.8730769,6.38653846 L16.8730769,6.38653846 Z" id="Shape"></path>
                <path d="M25.7726923,11.5530769 C25.7726923,10.53 24.9438462,9.70153846 23.9207692,9.70153846 C22.8984615,9.70076923 22.0696154,10.5307692 22.07,11.5538462 L22.0707692,19.3073077 C22.0711538,20.3311538 22.8996154,21.1592308 23.9230769,21.1584615 C24.9453846,21.1584615 25.7734615,20.3311538 25.7738462,19.3065385 L25.7726923,11.5530769 L25.7726923,11.5530769 Z" id="Shape"></path>
                <path d="M21.355,10.0503846 L21.355,10.0503846 L4.80153846,10.0534615 L4.80423077,22.0692308 C4.80384615,22.3842308 4.88384615,22.6773077 5.01423077,22.9411538 C5.33615385,23.5938462 6.00153846,24.0457692 6.78,24.0457692 L8.12538462,24.0457692 L8.12692308,28.1480769 C8.12692308,28.2757692 8.14,28.4003846 8.16461538,28.5207692 C8.33692308,29.3646154 9.08384615,30 9.97692308,30 C10.1046154,30 10.2296154,29.9869231 10.3503846,29.9623077 C11.1942308,29.7892308 11.8292308,29.0419231 11.8292308,28.1476923 L11.8280769,24.0453846 L14.3276923,24.0453846 L14.3276923,28.1476923 C14.3288462,29.0411538 14.965,29.7892308 15.8076923,29.9611538 C15.9280769,29.9857692 16.0526923,29.9984615 16.1803846,29.9984615 C17.2034615,29.9992308 18.0323077,29.1680769 18.0323077,28.1457692 L18.0311538,24.045 L19.3815385,24.0442308 C19.7511538,24.0446154 20.0934615,23.9361538 20.3896154,23.7588462 C20.9665385,23.4138462 21.3576923,22.7896154 21.3580769,22.0673077 L21.355,10.0503846 L21.355,10.0503846 Z" id="Shape"></path>
                <path d="M2.23115385,9.70346154 C1.20846154,9.70346154 0.38,10.5338462 0.379615385,11.555 L0.380769231,19.3092308 C0.381153846,19.9565385 0.712307692,20.5230769 1.21307692,20.8542308 C1.50576923,21.0480769 1.85576923,21.1619231 2.23269231,21.1626923 C3.12807692,21.1615385 3.87461538,20.5280769 4.04653846,19.6830769 C4.07115385,19.5623077 4.08384615,19.4373077 4.08384615,19.3092308 L4.08384615,11.5546154 C4.08384615,10.5326923 3.25384615,9.70346154 2.23115385,9.70346154 L2.23115385,9.70346154 Z" id="Shape"></path>
            </g>
        </g>
    </g>
</svg>

<svg width="26" height="30" viewBox="0 0 26 30" xmlns="http://www.w3.org/2000/svg"><title>fi-social-android</title><path d="M17.163 2.742l1.292-2.36a.257.257 0 1 0-.45-.248L16.7 2.517a8.912 8.912 0 0 0-3.627-.76 8.881 8.881 0 0 0-3.62.758L8.145.137a.255.255 0 0 0-.348-.103.254.254 0 0 0-.102.348L8.988 2.74c-2.54 1.31-4.256 3.805-4.255 6.67l16.679-.002c0-2.864-1.712-5.354-4.25-6.666zM9.278 6.388a.7.7 0 1 1 .005-1.398.7.7 0 0 1-.005 1.398zm7.595-.001a.699.699 0 1 1-.001-1.397.699.699 0 0 1 .001 1.397zm8.9 5.166a1.851 1.851 0 1 0-3.703 0v7.754a1.85 1.85 0 0 0 1.853 1.851 1.85 1.85 0 0 0 1.85-1.851v-7.754zm-4.418-1.503l-16.553.003.002 12.016c0 .315.08.608.21.872a1.967 1.967 0 0 0 1.766 1.105h1.345l.002 4.102a1.852 1.852 0 0 0 3.702 0v-4.103h2.499v4.103a1.856 1.856 0 0 0 1.852 1.85 1.852 1.852 0 0 0 1.852-1.852v-4.101h1.35c.37 0 .711-.109 1.008-.286a1.97 1.97 0 0 0 .968-1.692l-.003-12.017zM2.231 9.703c-1.023 0-1.851.83-1.851 1.852v7.754a1.85 1.85 0 0 0 .833 1.545 1.847 1.847 0 0 0 2.87-1.545v-7.754c0-1.022-.83-1.852-1.852-1.852z" fill="#748598" fill-rule="evenodd"/></svg>
